X:223
T:New Rigged Ship, The
R:reel
H:Originally a Shetland tune
D:Dervish: The Boys of Sligo
D:Altan: Harvest Storm
Z:id:hn-reel-223
M:C|
K:Amix
~a3g ageg|a2bg agef|~g3e fgag|1 fdef defg:|2 f2d2 e3d||
|:~c3A B2ed|~c3A EFAB|~c3A B2ed|1 cAAG A2ed:|2 c2A2 A3B||
|:=c2ec BcdB|A=cBG AGEG|=c2ec BcdB|1 =cAAG A3B:|2 =c2A2 ABcd||
P:Variations:
eaag ageg|a2ag agef|~g3e fgag|fdef defg|
a2~a2 ageg|agbg agef|~g3a fgag|fgec d2ed||
|:BccA B2ed|BccA E2ed|1 cA~A2 B2ed|cA (3Bcd cA~A2:|2 c2cA B2ed|cABc A3B||
|:=cdec B2dB|ABAF GFEG|=cdec B2dB|1 A=cBG ~A3B:|2 A=cBG Aefg||

